X:47
T: Rache im Zweikampf
N: Q2097C
O: Mitteleuropa, franzoesische Schweiz, Wallis
N: Schweizerische Fassung der Ballade.
R: Ballade, Frau in Maennerkleidung, Soldat, Betrug, Rache
M: 6/8
L: 1/16
K: C
 | c2c2c2d2c2B2 | c2B2A2G4E2 |
c2c2c2d2c2B2 | c2B2A2G4
G2 | G4F2E6 | G2c2d2e2d2e2 | d6c4
ee | d4c2G6 | d2e2d2A4B2 | c12

@@@ Tune index: 1340
